X: 1
T:A Miner
R:jig
C:Dougie MacDonald
O:20th century Cape Breton
D:A Miner
N:Bookings,Mechanicals etc.
N:..... Dougie MacDonald <dougie@cranfordpub.com>
N:More tunes and information <http://www.cranfordpub.com/dougie>
Z:This abc transcription is for personal use only,
Z:provided this notice remains attached.
Z:Used by permission of the composers.
Z:Paul Stewart Cranford 
Q:300
L:1/8
M:6/8
K:Ador
e2 d Bde|edB A2 B|G2 c BAB|GBc dBd|!
e2 d Bde|edB A2 B|GBc dgf|[1edB Abf:|[2edB A2||
|:b| afd e2 d|ega {b}age|dBd e2 g|ded egb|!
afd egd|ega {b}agf|egd (e/f/g)e|[1dBG A2:|[2dBG Aag|]!
